icons/svg/poi_colored/lock_gate.svg

<?xml version="1.0" encoding="UTF-8" standalone="no"?>
<!-- Created with Inkscape (http://www.inkscape.org/) -->

<svg
   xmlns:dc="http://purl.org/dc/elements/1.1/"
   xmlns:cc="http://creativecommons.org/ns#"
   xmlns:rdf="http://www.w3.org/1999/02/22-rdf-syntax-ns#"
   xmlns:svg="http://www.w3.org/2000/svg"
   xmlns="http://www.w3.org/2000/svg"
   xmlns:sodipodi="http://sodipodi.sourceforge.net/DTD/sodipodi-0.dtd"
   xmlns:inkscape="http://www.inkscape.org/namespaces/inkscape"
   version="1.0"
   width="580"
   height="580"
   id="svg2"
   sodipodi:version="0.32"
   inkscape:version="0.91 r"
   sodipodi:docname="lock_gate.svg"
   inkscape:output_extension="org.inkscape.output.svg.inkscape">
  <metadata
     id="metadata10">
    <rdf:RDF>
      <cc:Work
         rdf:about="">
        <dc:format>image/svg+xml</dc:format>
        <dc:type
           rdf:resource="http://purl.org/dc/dcmitype/StillImage" />
        <cc:license
           rdf:resource="http://web.resource.org/cc/PublicDomain" />
        <dc:language>en</dc:language>
        <dc:title />
      </cc:Work>
    </rdf:RDF>
  </metadata>
  <sodipodi:namedview
     inkscape:window-height="1004"
     inkscape:window-width="1920"
     inkscape:pageshadow="2"
     inkscape:pageopacity="0.0"
     guidetolerance="10.0"
     gridtolerance="10.0"
     objecttolerance="10.0"
     borderopacity="1.0"
     bordercolor="#666666"
     pagecolor="#ffffff"
     id="base"
     showgrid="false"
     inkscape:zoom="0.5"
     inkscape:cx="636.55413"
     inkscape:cy="362.22578"
     inkscape:window-x="1680"
     inkscape:window-y="0"
     inkscape:current-layer="svg2"
     inkscape:window-maximized="1"
     inkscape:snap-global="false">
    <inkscape:grid
       type="xygrid"
       id="grid3034" />
  </sodipodi:namedview>
  <defs
     id="defs4">
    <inkscape:perspective
       sodipodi:type="inkscape:persp3d"
       inkscape:vp_x="0 : 290 : 1"
       inkscape:vp_y="0 : 1000 : 0"
       inkscape:vp_z="580 : 290 : 1"
       inkscape:persp3d-origin="290 : 193.33333 : 1"
       id="perspective12" />
    <style
       type="text/css"
       id="style6">
   
    .fil0 {fill:#EF7900}
   
  </style>
    <inkscape:perspective
       id="perspective6807"
       inkscape:persp3d-origin="29.116032 : 19.410688 : 1"
       inkscape:vp_z="58.232063 : 29.116032 : 1"
       inkscape:vp_y="0 : 1000 : 0"
       inkscape:vp_x="0 : 29.116032 : 1"
       sodipodi:type="inkscape:persp3d" />
    <inkscape:perspective
       id="perspective6954"
       inkscape:persp3d-origin="290 : 193.33333 : 1"
       inkscape:vp_z="580 : 290 : 1"
       inkscape:vp_y="0 : 1000 : 0"
       inkscape:vp_x="0 : 290 : 1"
       sodipodi:type="inkscape:persp3d" />
    <inkscape:perspective
       id="perspective2541"
       inkscape:persp3d-origin="240 : 160 : 1"
       inkscape:vp_z="480 : 240 : 1"
       inkscape:vp_y="0 : 1000 : 0"
       inkscape:vp_x="0 : 240 : 1"
       sodipodi:type="inkscape:persp3d" />
    <inkscape:perspective
       id="perspective2750"
       inkscape:persp3d-origin="215 : 143.33333 : 1"
       inkscape:vp_z="430 : 215 : 1"
       inkscape:vp_y="0 : 1000 : 0"
       inkscape:vp_x="0 : 215 : 1"
       sodipodi:type="inkscape:persp3d" />
    <inkscape:perspective
       id="perspective3730"
       inkscape:persp3d-origin="88.929146 : 101.19778 : 1"
       inkscape:vp_z="177.85829 : 151.79668 : 1"
       inkscape:vp_y="0 : 1000 : 0"
       inkscape:vp_x="0 : 151.79668 : 1"
       sodipodi:type="inkscape:persp3d" />
  </defs>
  <a
     id="a3072">
    <g
       id="g1327">
      <path
         id="path1329"
         style="fill:#111111;stroke:#eeeeee;stroke-width:3.40799999"
         d="M 66.275,1.768 C 24.94,1.768 1.704,23.139 1.704,66.804 L 1.704,516.927 C 1.704,557.771 22.598,579.156 63.896,579.156 L 515.92,579.156 C 557.227,579.156 578.149,558.84 578.149,516.927 L 578.149,66.804 C 578.149,24.203 557.227,1.768 514.627,1.768 C 514.624,1.768 66.133,1.625 66.275,1.768 z" />
    </g>
  </a>
  <g
     id="g1327-3"
     transform="matrix(1.4887701,0,0,1.4888106,-703.87313,-249.96612)" />
  <path
     style="opacity:0.46400003;fill:#fefefe;fill-opacity:0;stroke:none;stroke-width:65.80000305;stroke-linecap:butt;stroke-linejoin:round;stroke-miterlimit:4;stroke-dasharray:none;stroke-opacity:0.68181817"
     d="m 68.849736,98.584956 62.484234,-60.510022 147.72293,-6.405652 67.31943,76.448018 33.83604,74.38689 14.4476,169.69977 32.24731,7.46021 76.48461,39.32203 41.56883,37.28607 -25.17259,76.21202 -66.80317,24.63803 -217.85992,11.2084 -173.226524,-62.037 -26.85924,-230.0863 z"
     id="path3759"
     inkscape:connector-curvature="0"
     sodipodi:nodetypes="ccccccccccccccc" />
  <path
     style="fill:#ffffff;fill-opacity:1;stroke-width:45.53900146;stroke-miterlimit:4;stroke-dasharray:none"
     d="M 165.91406 301.44531 C 155.91746 311.77413 141.47766 314.72461 132.5918 314.72461 C 128.14887 314.72461 124.81655 314.72554 121.48438 313.25 L 121.48438 339.80859 C 124.81655 339.80859 128.14887 341.28516 132.5918 341.28516 C 151.47425 341.28516 159.24967 335.38359 165.91406 328.00586 C 175.91067 338.33468 190.35048 341.28516 199.23633 341.28516 C 208.12221 341.28516 222.56199 338.33468 232.55859 328.00586 C 242.55516 338.33468 256.99303 341.28516 265.87891 341.28516 C 274.76475 341.28516 289.20458 338.33468 299.20117 328.00586 C 309.19778 338.33468 323.63758 341.28516 332.52344 341.28516 C 339.5811 341.28516 350.13752 339.40815 359.19336 333.4668 L 359.19336 306.90625 C 350.13752 312.8476 339.5811 314.72461 332.52344 314.72461 C 323.63758 314.72461 309.19778 311.77413 299.20117 301.44531 C 289.20458 311.77413 274.76475 314.72461 265.87891 314.72461 C 256.99303 314.72461 242.55516 311.77413 232.55859 301.44531 C 222.56199 311.77413 208.12221 314.72461 199.23633 314.72461 C 190.35048 314.72461 175.91067 311.77413 165.91406 301.44531 z "
     id="path17" />
  <path
     inkscape:connector-curvature="0"
     style="color:#000000;font-style:normal;font-variant:normal;font-weight:normal;font-stretch:normal;font-size:medium;line-height:normal;font-family:Sans;-inkscape-font-specification:Sans;text-indent:0;text-align:start;text-decoration:none;text-decoration-line:none;letter-spacing:normal;word-spacing:normal;text-transform:none;direction:ltr;block-progression:tb;writing-mode:lr-tb;baseline-shift:baseline;text-anchor:start;display:inline;overflow:visible;visibility:visible;fill:#ffffff;fill-opacity:1;stroke:none;stroke-width:46.00647736;marker:none;enable-background:accumulate"
     d="m 388.62173,119.83817 0,413.48717 55.70573,0.18958 0,-413.67675 z"
     id="path3000"
     sodipodi:nodetypes="ccccc" />
  <path
     style="fill:#ffffff;fill-opacity:1;stroke-width:45.53900146;stroke-miterlimit:4;stroke-dasharray:none"
     d="M 487.24219 385.77734 C 483.29143 391.02313 478.47725 394.40988 473.75586 396.50391 L 473.75586 423.91016 C 478.47725 421.81613 483.29143 418.42937 487.24219 413.18359 C 495.26975 423.84251 506.86245 426.85547 513.99805 426.85547 C 521.13367 426.85547 532.72439 423.84251 540.75195 413.18359 C 542.07511 414.94049 550.87439 421.41174 552.35547 422.77539 C 552.63307 412.59165 552.56027 406.8827 552.97656 395.88867 C 548.67119 393.75881 544.3472 390.55106 540.75195 385.77734 C 532.72439 396.43627 521.13367 399.44922 513.99805 399.44922 C 506.86245 399.44922 495.26975 396.43627 487.24219 385.77734 z "
     id="path17-7" />
  <path
     style="fill:#ffffff;fill-opacity:1;stroke-width:45.53900146;stroke-miterlimit:4;stroke-dasharray:none"
     d="m 100.17807,301.39187 c -9.881075,10.32882 -24.178575,13.30947 -32.961746,13.30947 -4.052677,0 -10.616398,-0.99653 -17.483728,-3.08089 0.293918,9.63742 0.379794,15.82579 0.477444,25.10572 5.946636,1.71237 13.415299,4.5325 17.006284,4.5325 8.783171,0 23.080671,-2.98066 32.961746,-13.30948 9.88107,10.32882 24.14073,13.30948 32.9239,13.30948 8.78318,0 23.04285,-2.98066 32.92391,-13.30948 9.88108,10.32882 24.17885,13.42595 32.96174,13.30948 16.14882,-0.21416 32.92391,-13.30948 32.92391,-13.30948 l 0,-26.55732 c 0,0 -17.82732,13.52363 -32.92391,13.30947 -8.78284,-0.12461 -23.08066,-2.98065 -32.96174,-13.30947 -9.88106,10.32882 -24.14073,13.30947 -32.92391,13.30947 -8.78317,0 -23.04283,-2.98065 -32.9239,-13.30947 z"
     id="path17-7-3"
     inkscape:connector-curvature="0"
     sodipodi:nodetypes="csccscscsccscsc" />
  <path
     style="color:#000000;display:inline;overflow:visible;visibility:visible;fill:#ffffff;fill-opacity:1;fill-rule:nonzero;stroke:none;stroke-width:10;marker:none;enable-background:accumulate"
     d="m 237.46613,67.886723 c -0.30058,-0.0014 -0.62025,0.02201 -0.93858,0.04366 l -185.489224,0 0,88.095367 234.186154,0 -38.89643,-81.765421 c -1.79908,-3.796811 -4.35328,-6.356083 -8.86192,-6.373601 z M 59.681972,94.69077 l 40.926368,0 0,46.60149 -40.926368,0 0,-46.60149 z m 51.687278,0 40.92637,0 0,46.60149 -40.92637,0 0,-46.60149 z m 64.25986,0 54.89591,0 20.9543,46.60149 -54.89591,0 -20.9543,-46.60149 z"
     id="rect3776"
     inkscape:connector-curvature="0" />
  <path
     style="color:#000000;display:inline;overflow:visible;visibility:visible;fill:#ffffff;fill-opacity:1;fill-rule:nonzero;stroke:none;stroke-width:10;marker:none;enable-background:accumulate"
     d="m 52.32614,173.59682 0,98.59435 236.84909,0 c 10.562,-0.26793 16.15768,-9.70546 17.13452,-11.41573 l 56.81671,-87.17862 -310.80032,0 z m 208.56079,6.59187 c 19.20983,0 34.98931,15.80131 34.98931,35.01114 0,19.20984 -15.77948,34.9675 -34.98931,34.9675 -19.20983,0 -34.98932,-15.75766 -34.98932,-34.9675 0,-19.20983 15.77949,-35.01114 34.98932,-35.01114 z m 0,19.97207 c -8.41377,0 -15.01726,6.62532 -15.01726,15.03907 0,8.41377 6.60349,14.99542 15.01726,14.99542 8.41375,0 15.01725,-6.58165 15.01725,-14.99542 0,-8.41375 -6.6035,-15.03907 -15.01725,-15.03907 z"
     id="rect3810"
     inkscape:connector-curvature="0" />
  <path
     style="color:#000000;clip-rule:nonzero;display:inline;overflow:visible;visibility:visible;opacity:0.379;isolation:auto;mix-blend-mode:normal;color-interpolation:sRGB;color-interpolation-filters:linearRGB;solid-color:#000000;solid-opacity:1;fill:#ffffff;fill-opacity:1;fill-rule:nonzero;stroke:none;stroke-width:40;stroke-linecap:butt;stroke-linejoin:miter;stroke-miterlimit:4;stroke-dasharray:none;stroke-dashoffset:0;stroke-opacity:1;marker:none;color-rendering:auto;image-rendering:auto;shape-rendering:auto;text-rendering:auto;enable-background:accumulate"
     d="M 49.5 321.01562 L 49.5 533.51562 L 359.20312 533.51562 A 29.430822 29.430822 0 0 1 359.19336 533.32617 L 359.19336 321.01562 L 49.5 321.01562 z "
     id="rect4172" />
  <path
     style="color:#000000;clip-rule:nonzero;display:inline;overflow:visible;visibility:visible;opacity:0.379;isolation:auto;mix-blend-mode:normal;color-interpolation:sRGB;color-interpolation-filters:linearRGB;solid-color:#000000;solid-opacity:1;fill:#ffffff;fill-opacity:1;fill-rule:nonzero;stroke:none;stroke-width:40;stroke-linecap:butt;stroke-linejoin:miter;stroke-miterlimit:4;stroke-dasharray:none;stroke-dashoffset:0;stroke-opacity:1;marker:none;color-rendering:auto;image-rendering:auto;shape-rendering:auto;text-rendering:auto;enable-background:accumulate"
     d="M 473.75586 412.23242 L 473.75586 533.51562 L 551.73828 533.51562 L 551.73828 412.23242 L 473.75586 412.23242 z "
     id="rect4172-0" />
</svg>

<svg width="580" height="580" viewBox="0 0 580 580" fill="none" xmlns="http://www.w3.org/2000/svg">
<path d="M165.914 301.445C155.917 311.774 141.478 314.725 132.592 314.725C128.149 314.725 124.817 314.726 121.484 313.25V339.809C124.817 339.809 128.149 341.285 132.592 341.285C151.474 341.285 159.25 335.384 165.914 328.006C175.911 338.335 190.35 341.285 199.236 341.285C208.122 341.285 222.562 338.335 232.559 328.006C242.555 338.335 256.993 341.285 265.879 341.285C274.765 341.285 289.205 338.335 299.201 328.006C309.198 338.335 323.638 341.285 332.523 341.285C339.581 341.285 350.138 339.408 359.193 333.467V306.906C350.138 312.848 339.581 314.725 332.523 314.725C323.638 314.725 309.198 311.774 299.201 301.445C289.205 311.774 274.765 314.725 265.879 314.725C256.993 314.725 242.555 311.774 232.559 301.445C222.562 311.774 208.122 314.725 199.236 314.725C190.35 314.725 175.911 311.774 165.914 301.445Z" fill="white"/>
<path d="M388.622 119.838V533.325L444.328 533.515V119.838H388.622Z" fill="white"/>
<path d="M487.242 385.777C483.291 391.023 478.477 394.41 473.756 396.504V423.91C478.477 421.816 483.291 418.429 487.242 413.184C495.27 423.843 506.862 426.855 513.998 426.855C521.134 426.855 532.724 423.843 540.752 413.184C542.075 414.94 550.874 421.412 552.355 422.775C552.633 412.592 552.56 406.883 552.977 395.889C548.671 393.759 544.347 390.551 540.752 385.777C532.724 396.436 521.134 399.449 513.998 399.449C506.862 399.449 495.27 396.436 487.242 385.777Z" fill="white"/>
<path d="M100.178 301.392C90.2971 311.721 75.9996 314.701 67.2164 314.701C63.1637 314.701 56.6 313.705 49.7327 311.62C50.0266 321.258 50.1125 327.446 50.2101 336.726C56.1567 338.439 63.6254 341.259 67.2164 341.259C75.9996 341.259 90.2971 338.278 100.178 327.949C110.059 338.278 124.319 341.259 133.102 341.259C141.885 341.259 156.145 338.278 166.026 327.949C175.907 338.278 190.205 341.375 198.988 341.259C215.137 341.044 231.912 327.949 231.912 327.949V301.392C231.912 301.392 214.084 314.915 198.988 314.701C190.205 314.577 175.907 311.721 166.026 301.392C156.145 311.721 141.885 314.701 133.102 314.701C124.319 314.701 110.059 311.721 100.178 301.392V301.392Z" fill="white"/>
<path d="M237.466 67.8868C237.166 67.8854 236.846 67.9088 236.528 67.9304H51.0383V156.026H285.224L246.328 74.2604C244.529 70.4636 241.975 67.9043 237.466 67.8868V67.8868ZM59.682 94.6908H100.608V141.292H59.682V94.6908ZM111.369 94.6908H152.296V141.292H111.369V94.6908ZM175.629 94.6908H230.525L251.479 141.292H196.583L175.629 94.6908V94.6908Z" fill="white"/>
<path d="M52.3262 173.597V272.191H289.175C299.737 271.923 305.333 262.486 306.31 260.776L363.126 173.597H52.3262V173.597ZM260.887 180.189C280.097 180.189 295.876 195.99 295.876 215.2C295.876 234.41 280.097 250.167 260.887 250.167C241.677 250.167 225.898 234.41 225.898 215.2C225.898 195.99 241.677 180.189 260.887 180.189ZM260.887 200.161C252.473 200.161 245.87 206.786 245.87 215.2C245.87 223.614 252.473 230.195 260.887 230.195C269.301 230.195 275.904 223.614 275.904 215.2C275.904 206.786 269.301 200.161 260.887 200.161Z" fill="white"/>
<path opacity="0.379" d="M49.5 321.016V533.516H359.203C359.2 533.452 359.196 533.389 359.193 533.326V321.016H49.5Z" fill="white"/>
<path opacity="0.379" d="M473.756 412.232V533.516H551.738V412.232H473.756Z" fill="white"/>
</svg>
